svgs/thin/presentation-screen.svg

<svg xmlns="http://www.w3.org/2000/svg" viewBox="0 0 576 512"><!--! Font Awesome Pro 6.3.0 by @fontawesome - https://fontawesome.com License - https://fontawesome.com/license (Commercial License) Copyright 2023 Fonticons, Inc. --><path d="M568 0H8C3.594 0 0 3.578 0 8S3.594 16 8 16h560C572.4 16 576 12.42 576 8S572.4 0 568 0zM536 48c-4.406 0-8 3.578-8 8v256c0 13.23-10.78 24-24 24H72c-13.22 0-24-10.77-24-24v-256c0-4.422-3.594-8-8-8S32 51.58 32 56v256C32 334.1 49.94 352 72 352h208v52.69l-93.66 93.66c-3.125 3.125-3.125 8.188 0 11.31s8.188 3.125 11.31 0l87.03-87.03C285.8 423.2 286.7 424 288 424s2.232-.8262 3.314-1.373l87.03 87.03C379.9 511.2 381.9 512 384 512s4.094-.7813 5.656-2.344c3.125-3.125 3.125-8.188 0-11.31L296 404.7V352h208C526.1 352 544 334.1 544 312v-256C544 51.58 540.4 48 536 48z"/></svg>

<svg xmlns="http://www.w3.org/2000/svg" viewBox="0 0 576 512"><!-- Font Awesome Pro 6.0.0-alpha2 by @fontawesome - https://fontawesome.com License - https://fontawesome.com/license (Commercial License) --><path d="M568 0H8C3.594 0 0 3.578 0 8S3.594 16 8 16H568C572.406 16 576 12.422 576 8S572.406 0 568 0ZM536 48C531.594 48 528 51.578 528 56V312C528 325.234 517.219 336 504 336H72C58.781 336 48 325.234 48 312V56C48 51.578 44.406 48 40 48S32 51.578 32 56V312C32 334.062 49.938 352 72 352H280V404.688L186.344 498.344C183.219 501.469 183.219 506.531 186.344 509.656S194.531 512.781 197.656 509.656L284.686 422.627C285.768 423.174 286.709 424 288 424S290.232 423.174 291.314 422.627L378.344 509.656C379.906 511.219 381.938 512 384 512S388.094 511.219 389.656 509.656C392.781 506.531 392.781 501.469 389.656 498.344L296 404.688V352H504C526.062 352 544 334.062 544 312V56C544 51.578 540.406 48 536 48Z"/></svg>
